X: 4
T: Eileen Curran
R: reel
M: 4/4
L: 1/8
K: Gmin
|:BAGF DGGB|AFcF dFcF|BAGF DGGA|BABc dggb||bgaf gdde|fdcB AF F2|BAGF DGGA|BdcA BG G2:||:G2g2 gagf|F2f2 fgfd|E2 g2 E2 ga|bgaf dgga| bgaf gdde|fdcB AF F2|BAGF DGGA|BdcA BG G2:|


Tune 132	Setting 12745

